X: 9214
T: Dan Breen's
R: reel
M: 4/4
K: Edorian
|:e2dB ABAG|EAAG A2Bd|e2dB ABAG|EGGF G2Bd:|
|:e3g edBd|eA (3AAA edBd|e2eg edBc|d2ef g2fg:|

